!!!!SEGMENT: pl-sa--576-a-ix-56--001_anonim--mazurek.krn
!!!cenid: 18xx:630
!!!COM: Anonim
!!!COM-rismID: pe30004985
!!!CDT:
!!!CNT:
!!!OTL: Mazurek
!!!PDT:
!!!AGN: Secular; Mazurka
!!!SMS-siglum: PL-SA
!!!SMS-shelfmark: 576/A IX 56
!!!SMS-shelfwork: 001 W
!!!SMS-variant:
!!!SMS-altvar:
!!!NIFC-rismSourceID: 1001109874
!!!NIFC-islandoraID:
!!!URL-pdf-islandora:
!!!URL-scan: https://bc.bdsandomierz.pl/dlibra/publication/1384/edition/1352/content @EN{Scan in the Sandomierz Diocese Digital Library} @PL{Skany w portalu Cyfrowa Biblioteka Diecezjalna w Sandomierzu}
!!!ONB-nifc: Str. 1, s. 1-2
!!!AIN: 1 empty
!!!key:
**kern	**kern	**fing
*part1	*part1	*part1
*staff2	*staff1	*
*Iempty	*Ipiano	*
*	*I"Piano	*
*clefF4	*clefG2	*
*k[]	*k[]	*
*G:	*G:	*
*M3/8	*M3/8	*
*>[A,A,B,B,A,A,B,B]	*>[A,A,B,B,A,A,B,B]	*
=1	=1	=1
*>A	*>A	*
!	!LO:TX:a:Bi:t=Mazurek	!
8cL 8C\	8.ee\L	.
8e 8c 8G\	.	.
.	16ff\L	.
8eJ 8c 8G\	16ee\	.
.	16dd\JJ	.
=2	=2	=2
8C\L	16ee\LL	.
.	16ff\JJ	.
8e 8c\	4gg\	.
8eJ 8c\	.	.
=3	=3	=3
!	!LO:TUP:a:problem=klamra łukowa	!
8G\L	24ff\LL	.
.	24gg\	.
.	24ff\JJ	.
8f 8B\	8dd\L	.
8fJ 8B\	16gg\L	.
.	16ff\JJ	.
=4	=4	=4
8G\L	16ff\LL	.
.	16ee\JJ	.
8e 8c\	4ee\	.
8eJ 8c\	.	.
=5	=5	=5
!	!LO:TUP:a:problem=klamra łukowa	!
8C\L	24gg\LL	.
.	24aa\	.
.	24bb\JJ	.
8c 8G 8E\	8ccc\L	.
8cJ 8G 8E\	16gg\L	.
.	16ee\JJ	.
=6	=6	=6
8F\L	16dd\LL	1
.	16ff\JJ	3
8d 8A\	8aa\L	.
8dJ 8A\	16ff\L	.
.	16dd\JJ	.
=7	=7	=7
8G\L	16b\LL	.
.	16dd\	2
8f 8d 8B\	16ff\	.
.	16aa\	.
8fJ 8d 8B\	16gg\	4
.	16b\JJ	.
=8	=8	=8
8C\L	16dd\LL	2
.	16cc\JJ	.
8e\J	4cc\	.
8r	.	.
!LO:TX:a:t=P:problem=w źródle fermata na kresce taktowej skierowana do dołu	!	!
=9:|!|:;	=9:|!|:;	=9:|!|:;
*>B	*>B	*
*k[f#]	*k[f#]	*
!	!LO:TUP:a:problem=klamra łukowa	!
8G\L	24dd\LL	.
.	24ee\	.
.	24dd\JJ	.
8d 8B\	8b\L	.
8dJ 8B\	8gg\J	.
!!LO:LB:g=original
=10	=10	=10
8A\L	16gg\LL	.
.	16ff#X\JJ	.
8d 8c\	4aa\	.
8dJ 8c\	.	.
=11	=11	=11
!	!LO:TUP:a:problem=klamra łukowa	!
8D\L	24ff#\LL	.
.	24gg\	.
.	24ff#\JJ	.
8d 8A 8F#X\	8dd\L	1
8dJ 8A 8F#\	16ee\L	.
.	16ff#\JJ	.
=12	=12	=12
8G\L	16gg\LL	1
.	16bb\JJ	3
8d 8B\	4ddd\	.
8dJ 8B\	.	.
=13	=13	=13
*rep	*	*
!	!LO:TUP:a:problem=klamra łukowa	!
8G\L	24dd\LL	.
.	24ee\	.
.	24dd\JJ	.
8d 8B\	8b\L	.
8dJ 8B\	8gg\J	.
*Xrep	*	*
=14	=14	=14
8A\L	16gg\LL	1
.	16ff#\JJ	.
8d 8c\	4aa\	.
8dJ 8c\	.	.
=15	=15	=15
!	!LO:TUP:a:problem=klamra łukowa	!
8D\L	24ff#\LL	.
.	24gg\	.
.	24ff#\JJ	.
8d 8A 8F#\	8dd\L	1
8dJ 8A 8F#\	16ee\L	.
.	16ff#\JJ	.
=16	=16	=16
8G\L	16aa\LL	.
.	16gg\JJ	.
8d 8B\	4gg\	.
8dJ 8B\	.	.
!	!LO:TX:b:Bi:t=Mazureka Capo ...	!
==:|!	==:|!	==:|!
*-	*-	*-
!!!system-decoration: {(s1,s2)}
!!!RDF**kern: > = above
!!!RDF**kern: < = below
!!!EED: Wojciech Jakubiak-Danek
!!!EEV: 2020-12-10
!!!ENC: Kamil Watkowski
!!!END: 2020-06-19
!!!YEC: Copyright 2022 Narodowy Instytut Fryderyka Chopina (https://polishscores.org)
!!!YEM: Licence CC BY 4.0 (https://creativecommons.org/licenses/by/4.0)
